packages/foundations/assets/icons/functional/images/notification/bell_32_filled.svg

<svg width="32" height="32" viewBox="0 0 32 32" fill="none" xmlns="http://www.w3.org/2000/svg">
<g clip-path="url(#clip0_2214_8030)">
<path fill-rule="evenodd" clip-rule="evenodd" d="M16.0312 2.00068C16.5625 2.00068 17 2.46948 17 3.00068V6.06318C21.2812 6.53198 24 10.032 24 15.2507V19.0007C24 21.6257 24.6562 22.9382 26.5312 24.157C26.8125 24.3445 27 24.657 27 25.0007C27 25.5945 26.5322 26.0006 25.9999 26.0006H20C20 28.2195 18.2188 30.0006 16 30.0006C13.7812 30.0006 12 28.2195 12 26.0006L6 26.0007C5.4688 26.0007 5 25.5945 5 25.0007C5 24.657 5.1875 24.3445 5.4688 24.157C7.3438 22.9382 8 21.6257 8.0001 19.0007L8 15.2507C8 10.032 10.7188 6.53198 15 6.06318V3.00068C15 2.43818 15.4375 1.96948 16 2.00088L16.0312 2.00068ZM18 26.0006L14 26.0007C14 27.0945 14.9062 28.0007 16 28.0006C17.0938 28.0007 18 27.0945 18 26.0006Z" fill="#1A1C1F"/>
</g>
<defs>
<clipPath id="clip0_2214_8030">
<rect width="32" height="32" fill="white"/>
</clipPath>
</defs>
</svg>

<svg xmlns="http://www.w3.org/2000/svg" width="32" height="32" fill="none"><g clip-path="url(#a)"><path fill="#1A1C1F" fill-rule="evenodd" d="M16.031 2c.532 0 .969.47.969 1v3.063c4.281.469 7 3.969 7 9.188V19c0 2.625.656 3.937 2.531 5.156.282.188.469.5.469.844 0 .593-.468 1-1 1h-6c0 2.218-1.781 4-4 4s-4-1.782-4-4H6c-.531 0-1-.407-1-1 0-.344.188-.657.469-.844C7.344 22.938 8 21.626 8 19.001v-3.75c0-5.219 2.719-8.719 7-9.188V3.001c0-.563.438-1.032 1-1zM18 26h-4c0 1.095.906 2 2 2s2-.905 2-2" clip-rule="evenodd"/></g><defs><clipPath id="a"><path fill="#fff" d="M0 0h32v32H0z"/></clipPath></defs></svg>
